source/img/energo/activity-3.svg

<svg width="134" height="87" viewBox="0 0 134 87" fill="none" xmlns="http://www.w3.org/2000/svg">
<path fill-rule="evenodd" clip-rule="evenodd" d="M43.4792 84.5583C66.155 84.5583 84.5373 66.176 84.5373 43.5002C84.5373 20.8244 66.155 2.44208 43.4792 2.44208C20.8034 2.44208 2.42109 20.8244 2.42109 43.5002C2.42109 66.176 20.8034 84.5583 43.4792 84.5583ZM43.4792 86.537C67.2478 86.537 86.516 67.2688 86.516 43.5002C86.516 19.7316 67.2478 0.463379 43.4792 0.463379C19.7106 0.463379 0.442383 19.7316 0.442383 43.5002C0.442383 67.2688 19.7106 86.537 43.4792 86.537Z" fill="white"/>
<path fill-rule="evenodd" clip-rule="evenodd" d="M43.4798 81.5899C64.5164 81.5899 81.5699 64.5364 81.5699 43.4998C81.5699 22.4633 64.5164 5.40976 43.4798 5.40976C22.4432 5.40976 5.38974 22.4633 5.38974 43.4998C5.38974 64.5364 22.4432 81.5899 43.4798 81.5899ZM43.4798 82.5792C65.0628 82.5792 82.5592 65.0828 82.5592 43.4998C82.5592 21.9169 65.0628 4.42041 43.4798 4.42041C21.8968 4.42041 4.40039 21.9169 4.40039 43.4998C4.40039 65.0828 21.8968 82.5792 43.4798 82.5792Z" fill="white"/>
<path fill-rule="evenodd" clip-rule="evenodd" d="M47.4072 10.2183C54.7434 11.2906 60.6881 14.9599 63.9473 18.0475L64.6431 18.7067L47.7256 37.7389L47.0898 37.5005C44.2217 36.4249 41.0519 37.0572 39.8698 37.5005L39.2444 37.735L21.7695 18.6715L22.563 18.0072C31.2925 10.6988 40.0277 9.13961 47.4072 10.2183ZM24.6354 18.8696L39.8224 35.4373C41.4282 34.9805 44.3042 34.5739 47.1327 35.4276L61.8757 18.8417C58.745 16.1368 53.4885 13.1069 47.121 12.1762C40.5074 11.2095 32.6465 12.4976 24.6354 18.8696Z" fill="white"/>
<path fill-rule="evenodd" clip-rule="evenodd" d="M47.4072 77.2764C54.7434 76.204 60.6881 72.5347 63.9473 69.4471L64.6431 68.7879L47.7256 49.7558L47.0898 49.9942C44.2217 51.0697 41.0519 50.4374 39.8698 49.9942L39.2444 49.7596L21.7695 68.8232L22.563 69.4874C31.2925 76.7958 40.0277 78.355 47.4072 77.2764ZM24.6354 68.625L39.8224 52.0573C41.4282 52.5142 44.3042 52.9208 47.1327 52.0671L61.8757 68.653C58.745 71.3578 53.4885 74.3877 47.121 75.3185C40.5074 76.2852 32.6465 74.997 24.6354 68.625Z" fill="white"/>
<path fill-rule="evenodd" clip-rule="evenodd" d="M9.6548 47.4277C10.7272 54.7639 14.3964 60.7086 17.4841 63.9678L18.1432 64.6636L37.1754 47.7461L36.937 47.1103C35.8615 44.2422 36.4937 41.0724 36.937 39.8903L37.1715 39.2649L18.108 21.79L17.4437 22.5835C10.1353 31.313 8.57613 40.0482 9.6548 47.4277ZM18.3061 24.6559L34.8738 39.8429C34.417 41.4488 34.0104 44.3247 34.8641 47.1532L18.2782 61.8962C15.5733 58.7655 12.5434 53.509 11.6127 47.1415C10.646 40.5279 11.9341 32.667 18.3061 24.6559Z" fill="white"/>
<path fill-rule="evenodd" clip-rule="evenodd" d="M77.2554 40.0674C76.183 32.7312 72.5137 26.7865 69.4261 23.5273L68.7669 22.8315L49.7348 39.749L49.9732 40.3848C51.0487 43.2529 50.4164 46.4227 49.9732 47.6048L49.7386 48.2302L68.8022 65.7051L69.4665 64.9116C76.7748 56.1822 78.334 47.4469 77.2554 40.0674ZM68.604 62.8392L52.0364 47.6522C52.4932 46.0464 52.8998 43.1704 52.0461 40.3419L68.632 25.5989C71.3368 28.7296 74.3667 33.9861 75.2975 40.3536C76.2642 46.9672 74.976 54.8282 68.604 62.8392Z" fill="white"/>
<path d="M120.155 63.7815C113.031 55.0752 96.4104 51.5795 88.9902 50.9199C104.424 53.2944 113.559 62.7921 116.197 67.2442L113.229 70.707L124.607 72.6857L123.123 60.8134L120.155 63.7815Z" fill="white"/>
<path d="M120.155 25.197C113.031 33.9033 96.4104 37.399 88.9902 38.0586C104.424 35.6841 113.559 26.1864 116.197 21.7343L113.229 18.2715L124.607 16.2928L123.123 28.1651L120.155 25.197Z" fill="white"/>
<path d="M125.101 42.016L87.5059 44.984L125.101 47.4574V50.9201L134.5 43.9947L125.101 38.5532V42.016Z" fill="white"/>
</svg>

<svg width="134" height="87" fill="none" xmlns="http://www.w3.org/2000/svg"><path fill-rule="evenodd" clip-rule="evenodd" d="M43.48 84.558c22.675 0 41.057-18.382 41.057-41.058S66.155 2.442 43.48 2.442 2.421 20.824 2.421 43.5 20.803 84.558 43.48 84.558zm0 1.979c23.768 0 43.036-19.268 43.036-43.037C86.516 19.732 67.248.463 43.479.463 19.711.463.442 19.732.442 43.5c0 23.769 19.269 43.037 43.037 43.037z" fill="#fff"/><path fill-rule="evenodd" clip-rule="evenodd" d="M43.48 81.59c21.036 0 38.09-17.054 38.09-38.09 0-21.037-17.054-38.09-38.09-38.09-21.037 0-38.09 17.053-38.09 38.09 0 21.036 17.053 38.09 38.09 38.09zm0 .99c21.583 0 39.08-17.497 39.08-39.08S65.062 4.42 43.48 4.42 4.4 21.917 4.4 43.5s17.497 39.08 39.08 39.08z" fill="#fff"/><path fill-rule="evenodd" clip-rule="evenodd" d="M47.407 10.218c7.336 1.073 13.281 4.742 16.54 7.83l.696.659-16.917 19.032-.636-.238c-2.868-1.076-6.038-.444-7.22 0l-.626.234L21.77 18.672l.793-.665c8.73-7.308 17.465-8.867 24.844-7.789zM24.635 18.87l15.187 16.567c1.606-.456 4.482-.863 7.31-.01l14.744-16.585c-3.131-2.705-8.387-5.735-14.755-6.666-6.614-.966-14.474.322-22.486 6.694zm22.772 58.406c7.336-1.072 13.281-4.741 16.54-7.829l.696-.66-16.917-19.031-.636.238c-2.868 1.076-6.038.443-7.22 0l-.626-.234L21.77 68.823l.793.664c8.73 7.309 17.465 8.868 24.844 7.79zm-22.772-8.651l15.187-16.568c1.606.457 4.482.864 7.31.01l14.744 16.586c-3.131 2.705-8.387 5.735-14.755 6.665-6.614.967-14.474-.321-22.486-6.693zM9.655 47.428c1.072 7.336 4.741 13.28 7.83 16.54l.658.696 19.032-16.918-.238-.636c-1.075-2.868-.443-6.038 0-7.22l.235-.625L18.108 21.79l-.664.794c-7.309 8.729-8.868 17.464-7.79 24.844zm8.651-22.772l16.568 15.187c-.457 1.606-.864 4.482-.01 7.31L18.278 61.896c-2.705-3.13-5.735-8.387-6.665-14.755-.967-6.613.321-14.474 6.693-22.485zm58.949 15.411c-1.072-7.336-4.741-13.28-7.829-16.54l-.66-.696-19.03 16.919.238.636c1.076 2.868.443 6.038 0 7.22l-.234.625 19.063 17.475.664-.793c7.309-8.73 8.868-17.465 7.79-24.845zM68.604 62.84L52.036 47.652c.457-1.606.864-4.482.01-7.31l16.586-14.743c2.705 3.13 5.735 8.387 6.665 14.755.967 6.613-.321 14.474-6.693 22.485z" fill="#fff"/><path d="M120.155 63.782C113.031 55.075 96.41 51.58 88.99 50.92c15.434 2.374 24.569 11.872 27.207 16.324l-2.968 3.463 11.378 1.979-1.484-11.873-2.968 2.968zm0-38.585c-7.124 8.706-23.745 12.202-31.165 12.862 15.434-2.375 24.569-11.873 27.207-16.325l-2.968-3.463 11.378-1.978-1.484 11.872-2.968-2.968zm4.946 16.819l-37.595 2.968 37.595 2.473v3.463l9.399-6.925-9.399-5.442v3.463z" fill="#fff"/></svg>
